cached_logos/hyperledger-firefly.svg

<svg xmlns="http://www.w3.org/2000/svg" role="img" viewBox="-4.15 1.60 345.54 91.29"><title>Hyperledger Firefly logo</title><style>svg {enable-background:new 0 0 336.9295654 93.0705872}</style><style>.st3{fill:#462de0}</style><path fill="#24272a" d="M124.387 9.024L128.851 9 128.893 16.55 137.567 16.505 137.526 8.954 141.991 8.931 142.097 29.182 137.633 29.203 137.587 20.452 128.913 20.498 128.959 29.25 124.493 29.274zM152.869 20.621L145.192 9.049 150.745 9.019 155.079 16.577 159.59 8.973 164.886 8.947 157.334 20.599 157.378 29.236 152.914 29.26zM168.0104675 8.9965096l7.5293884-.0387697c1.0485687-.0062017 2.0428925.082983 2.9774628.2706785.9353638.1853275 1.7536011.5095453 2.4547272.9718008.6972656.4661369 1.2541199 1.0912342 1.6682892 1.8792219.4157104.7887926.6251221 1.7853985.6328735 2.9860315.0054321 1.1835432-.1807098 2.1747065-.5568848 2.9797831-.3784637.8011932-.8996735 1.4418182-1.5643463 1.9242401-.6677704.4800549-1.4557648.8213139-2.3709412 1.0252934-.916748.2062988-1.9071808.3118153-2.9759369.3180161l-3.2636566.016283.0411072 7.8946934-4.4642792.0224857L168.0104675 8.9965096zM172.5228424 17.5535088l2.9758911-.01548c.4025421-.0008049.7864532-.0418949 1.1602783-.1202393.3707275-.0759773.7026825-.2093754.9997253-.391674.2947388-.1838131.5305176-.4320049.7104492-.7476559.1799316-.3148918.2667999-.7104473.2652435-1.1874247-.0038605-.5134277-.1240997-.9291496-.3629608-1.2424793-.2420044-.3140879-.5475616-.5553217-.9213867-.7259274-.3699799-.1667719-.7880249-.276123-1.2463989-.3210936-.4583588-.0442142-.8981171-.066699-1.317688-.0628176l-2.2895508.0108404L172.5228424 17.5535088zM186.368 9.015L200.136 8.943 200.158 13.062 190.854 13.111 190.875 16.885 199.663 16.839 199.684 20.958 190.896 21.005 190.917 25.124 200.736 25.074 200.757 29.191 186.474 29.265zM203.8521881 8.9984102l7.8427277-.0426512c1.0291901-.0054445 2.0095367.0891838 2.9332733.2854004.9268036.1947012 1.7380829.5250721 2.4399872.9873276.6972351.4638176 1.2541199 1.0912342 1.6674957 1.8792696.4157257.790307.6259003 1.7760725.6328888 2.9557352.0069885 1.4309311-.3598938 2.6478481-1.0990295 3.6553421-.7360077 1.0059319-1.8210602 1.6434326-3.2535553 1.9179916l5.1987457 8.526041-5.3530884.0278816-4.2765808-8.0730629-2.206543.0116444.0426483 8.0947914-4.4658203.0240479L203.8521881 8.9984102zM208.3606873 17.3529911l2.6338806-.0131588c.3994141-.0015621.826004-.0186043 1.2735138-.0496578.448288-.0317631.8531189-.117115 1.2145538-.2636719.3621979-.1442871.6608124-.3707523.8988953-.6770763.2350159-.3063698.3521271-.7344952.3505859-1.2874966-.003891-.5157471-.1116943-.9260254-.3226624-1.2285156-.2101746-.3040514-.4785309-.5359125-.8035126-.6972399-.3249512-.1621332-.7003326-.267602-1.1191559-.3234138-.4195862-.0551014-.8291016-.0814686-1.2300873-.0775862l-2.9200592.0147219L208.3606873 17.3529911zM223.202 8.977L227.665 8.954 227.751 25.086 236.024 25.042 236.047 29.161 223.307 29.226zM239.142 9.001L252.91 8.929 252.931 13.048 243.629 13.098 243.65 16.872 252.437 16.828 252.459 20.945 243.669 20.991 243.692 25.11 253.511 25.061 253.532 29.178 239.248 29.251zM256.6267395 8.9956951l6.697937-.0348873c1.6209717-.009326 3.1651917.1644039 4.6263733.5173092 1.4604492.3544188 2.7393799.9369125 3.8306274 1.7403793 1.0920105.8050766 1.9606628 1.8513403 2.6082764 3.146554.6452942 1.2952614.9741516 2.8650351.9819031 4.7148142.0085144 1.6403542-.2931824 3.0875702-.9074402 4.3378143-.6127319 1.2525616-1.4425659 2.3065891-2.4865112 3.1581993-1.0462646.855444-2.2538757 1.5046368-3.6251221 1.9498024-1.3735352.4475327-2.8130188.6739979-4.3192139.6809559l-7.2990112.0388184L256.6267395 8.9956951zM261.177887 25.1045666l2.3189697-.0131607c1.0292053-.0054436 1.9893799-.1147938 2.8735352-.3280525.8872986-.217186 1.6535645-.56777 2.2988586-1.0579071.6460571-.4878654 1.1540527-1.1300526 1.5216675-1.924242.3676453-.7918682.5491333-1.7605934.5437012-2.9053192-.0054321-.991209-.196991-1.8536606-.5731506-2.5865936-.3746033-.732933-.8795166-1.3340311-1.5116272-1.8086882-.6313171-.4738531-1.375885-.8275156-2.2228088-1.0594244-.8500366-.2357903-1.7442932-.3490219-2.679657-.3451405l-2.6330872.0147219L261.177887 25.1045666zM297.9493103 27.7526474c-1.3130798.6941624-2.6850586 1.1983128-4.1137085 1.5100803-1.4301758.3141346-2.8882751.4730949-4.3766174.4808578-1.5845337.0070076-3.0464783-.2319069-4.3843689-.7197247-1.3378906-.4901848-2.4950867-1.1928692-3.4730835-2.1134987-.9803467-.9190655-1.7442932-2.0351067-2.2957458-3.3474083-.5506592-1.3153801-.8291016-2.7812481-.8384094-4.402998-.0093079-1.6209469.2559509-3.0891342.7918701-4.4084435.539032-1.3169413 1.2897949-2.4415026 2.2600708-3.3730183.9671631-.9299068 2.1173401-1.645752 3.4536743-2.1467772 1.3293457-.5049067 2.7882385-.7608624 4.3727417-.767869 1.6217651-.0092783 3.1170959.1776123 4.4828796.5615234 1.3650513.3847151 2.5679626 1.0501451 3.6026001 1.998703l-3.1294556 3.4490442c-.6142883-.626708-1.3045654-1.1005602-2.0692749-1.4208965-.7639771-.3195314-1.7194824-.4769773-2.8642578-.4700184-.953949.0038815-1.8164062.1714106-2.5881042.4995098-.7709351.3303719-1.4309692.783349-1.9839478 1.3673573-.5491333.5863276-.9687195 1.2804918-1.2619019 2.0840063-.2908325.8011475-.4343262 1.6697998-.4288635 2.6028309.0061951.9555168.1566467 1.8257294.4567871 2.6145229.3009338.7903061.7275085 1.4751453 1.2835999 2.0521946.5568848.5801258 1.223877 1.0291748 1.9971313 1.3502674.7740479.3195782 1.6403809.475462 2.5935669.4715805.9741516-.0054436 1.8125305-.1186752 2.5183411-.341259.7026367-.2225838 1.2649536-.4490471 1.6837769-.6809559l-.0178528-3.2900352-3.6351624.0186024-.0201416-4.119112 7.928009-.0426979L297.9493103 27.7526474zM301.044 8.536L314.812 8.464 314.832 12.58 305.53 12.631 305.55 16.405 314.339 16.36 314.36 20.477 305.572 20.524 305.594 24.645 315.411 24.593 315.433 28.709 301.151 28.785zM318.5281982 8.5206041l7.8427124-.0410891c1.0292053-.0054436 2.0072327.0868654 2.9348145.2854004.9260254.1947012 1.7380676.5250731 2.438446.9873276.699585.4622555 1.2541199 1.0889149 1.6698303 1.8792696.4133911.7887449.6235657 1.7760735.6305542 2.9557352.0069885 1.4309311-.3598938 2.6478481-1.0966797 3.6553421-.7383423 1.0036125-1.8234253 1.6419182-3.254364 1.9179916l5.1972046 8.5244789-5.3530884.0279293-4.2789001-8.0715485-2.2042236.0116444.0426636 8.0947914-4.463501.0217285L318.5281982 8.5206041zM323.0366821 16.876749l2.6338806-.0147228c.3994141 0 .8244324-.0186043 1.2734985-.0480957.4467468-.0317631.851593-.1171131 1.2138062-.265234.3606567-.142725.6600037-.3691883.8973389-.6755133.2373352-.3063707.3544312-.7344961.3529053-1.2874975-.0038757-.5157471-.1116943-.9260254-.321106-1.2285147-.211731-.3040524-.4801025-.5359135-.807373-.6972408-.3242188-.1621323-.699585-.2691641-1.1168518-.3234129-.4211426-.0574207-.8291016-.0814686-1.2323914-.0799065l-2.9177551.0170412L323.0366821 16.876749z"/><g><path fill="#472ee0" d="M126.8347473 43.9415588h26.6376953v5.3876953h-20.8911133v13.2885742h19.4545898v5.3876953h-19.4545898v18.3168945h-5.746582V43.9415588zM158.7991028 43.9415588h5.746582v42.3808594h-5.746582V43.9415588zM173.0456848 43.9415588h14.9052734c2.7128906 0 4.9472656.3696289 6.7041016 1.1074219 1.7558594.7387695 3.1425781 1.6762695 4.1601562 2.8134766s1.7255859 2.4150391 2.125 3.8310547c.3984375 1.4169922.5986328 2.7836914.5986328 4.1005859 0 1.3569336-.2392578 2.6635742-.7177734 3.9204102-.4794922 1.2573242-1.1679688 2.3945312-2.0654297 3.4121094-.8984375 1.0175781-1.9960938 1.8764648-3.2919922 2.5742188-1.2978516.6987305-2.7451172 1.1279297-4.3398438 1.2866211l12.03125 19.3349609h-7.1826172L185.197052 67.6461487h-6.4052734v18.6762695h-5.7460938V43.9415588zM178.7917786 62.6178284h7.5429688c1.1162109 0 2.2236328-.0898438 3.3222656-.269043 1.0966797-.1796875 2.0742188-.5092773 2.9326172-.987793.8583984-.4790039 1.5458984-1.1674805 2.0654297-2.0654297.5185547-.8979492.7783203-2.0649414.7783203-3.5014648 0-1.4370117-.2597656-2.6040039-.7783203-3.5019531-.5195312-.8979492-1.2070312-1.5864258-2.0654297-2.0654297-.8583984-.4785156-1.8359375-.8081055-2.9326172-.9873047-1.0986328-.1796875-2.2060547-.2695312-3.3222656-.2695312h-7.5429688V62.6178284zM207.2253723 43.9415588h27.3554688v5.3876953h-21.609375v12.6303711h20.1132812v5.387207h-20.1132812v13.5883789h22.6875v5.387207h-28.4335938V43.9415588zM241.4050598 43.9415588h26.6376953v5.3876953h-20.8916016v13.2885742h19.4550781v5.3876953h-19.4550781v18.3168945h-5.7460938V43.9415588zM273.3699036 43.9415588h5.7460938v36.9936523h19.4550781v5.387207h-25.2011719V43.9415588zM305.3943176 68.2447815l-16.0419922-24.3032227h7.3632812l11.5527344 18.6166992 11.9121094-18.6166992h7.0029297l-16.0419922 24.3032227v18.0776367h-5.7470703V68.2447815z"/></g><g id="Group-2-Copy-2" transform="translate(0 .665)"><path id="Path-3" fill="#ffea00" fill-rule="evenodd" d="M41.344 61.991L41.344 71.833 53.747 79.145 66.12 71.833 66.12 48.929 53.747 56.073 41.344 48.929z" clip-rule="evenodd"/><path id="Combined-Shape" d="M63.9449883,46.3943977l4.2181892,1.7192154l0.0001678,22.8760796 c0,1.4531708-0.7475739,2.7998962-1.9711685,3.5698547l-0.1379013,0.0831528l-10.2284203,5.9053802 c-1.3050957,0.7535019-2.9130402,0.7535019-4.218132,0l0,0l-10.2284279-5.9053802 c-1.3050919-0.7535019-2.1090622-2.146019-2.1090622-3.6530075l0,0l-0.0004311-22.8561172l4.2181931-1.5885506 l0.0003662,24.4446678l10.2284279,5.9053802l10.2284241-5.9053802L63.9449883,46.3943977z M51.6077232,22.6382179 c1.3050919-0.7534962,2.9130363-0.7534962,4.218132,0l0,0l10.2284203,5.9053841 c1.3050995,0.7534962,2.1090698,2.1460152,2.1090698,3.6530075l0,0l-0.0001678,4.5297585l-4.2181892-0.0871086l0.0002251-4.4426498 l-10.2284241-5.9053822l-10.2284279,5.9053822l-0.0003662,4.0204048l-4.2181931-0.0865021l0.0004311-3.9339027 c0-1.4531708,0.74757-2.7999001,1.9711647-3.5698547l0.1378975-0.0831528L51.6077232,22.6382179z" class="st3"/><path id="Path-2" d="M65.0655365,57.774231l2.1090698,3.6530075L54.80159,68.5708008 c-0.6292458,0.3632889-1.3992882,0.3762741-2.0385857,0.0389252l-0.0704803-0.0389252l-12.3730164-7.1435623l2.109066-3.6530075 l11.3183022,6.5345001L65.0655365,57.774231z" class="st3"/><path id="Path-2-Copy" d="M65.0655365,46.9476929l2.1090698,3.6530075L54.80159,57.7442627 c-0.6292458,0.3632927-1.3992882,0.3762703-2.0385857,0.0389252l-0.0704803-0.0389252l-12.3730164-7.1435623l2.109066-3.6530075 l11.3183022,6.5345001L65.0655365,46.9476929z" class="st3"/><path id="Path-4" d="M53.7167892,33.7295303H4.7864637c-2.0276482,0-2.8872004,2.5819168-1.2641599,3.7972755 l23.658884,17.7161522c0.6173763,0.4623032,1.43787,0.5507317,2.1395721,0.2305908l25.2714405-11.5295563 c0.7514801-0.3428497,1.233654-1.0928154,1.233654-1.9188042v-6.1865959 C55.8258553,34.67379,54.8815918,33.7295303,53.7167892,33.7295303z M51.6077232,37.9476585v2.7212601L28.7080498,51.1163864 l-17.586235-13.1687279H51.6077232z" class="st3"/><path id="Path-4-Copy" d="M53.9939156,33.7295303h48.9303169c2.0276489,0,2.887207,2.5819168,1.2641678,3.7972755 L80.5295105,55.2429581c-0.6173782,0.4623032-1.4378662,0.5507317-2.1395721,0.2305908L53.1184998,43.9439926 c-0.7514763-0.3428497-1.2336502-1.0928154-1.2336502-1.9188042v-6.1865959 C51.8848495,34.67379,52.8291054,33.7295303,53.9939156,33.7295303z M56.1029816,37.9476585v2.7212601l22.8996658,10.4474678 l17.586235-13.1687279H56.1029816z" class="st3"/><path id="Line-Copy-3" d="M46.686573,20.5316429c1.141964,0,2.071949,0.9075947,2.1079788,2.0408077 l0.0010796,0.0682583v4.5507164c0,1.1648045-0.9442596,2.1090641-2.1090584,2.1090641 c-1.1419716,0-2.0719566-0.9075928-2.1079865-2.0408077l-0.0010796-0.0682564v-4.5507164 C44.577507,21.4759045,45.5217667,20.5316429,46.686573,20.5316429z" class="st3"/><path id="Line-Copy-4" d="M61.1688194,20.5316429c1.1419678,0,2.0719528,0.9075947,2.1079826,2.0408077 l0.0010834,0.0682583v4.5507164c0,1.1648045-0.9442596,2.1090641-2.109066,2.1090641 c-1.141964,0-2.071949-0.9075928-2.1079788-2.0408077l-0.0010872-0.0682564v-4.5507164 C59.0597534,21.4759045,60.0040169,20.5316429,61.1688194,20.5316429z" class="st3"/></g></svg>

<svg xmlns="http://www.w3.org/2000/svg" role="img" viewBox="-4.15 1.60 345.54 91.29"><title>Hyperledger Firefly logo</title><style>svg {enable-background:new 0 0 336.9295654 93.0705872}</style><style>.st3{fill:#462de0}</style><path fill="#24272a" d="M124.387 9.024L128.851 9l.042 7.55 8.674-.045-.041-7.551 4.465-.023.106 20.251-4.464.021-.046-8.751-8.674.046.046 8.752-4.466.024zm28.482 11.597l-7.677-11.572 5.553-.03 4.334 7.558 4.511-7.604 5.296-.026-7.552 11.652.044 8.637-4.464.024zm15.14147-11.62449l7.52939-.03877c1.04856-.0062 2.04289.08298 2.97746.27068.93536.18533 1.7536.50954 2.45473.9718.69726.46614 1.25412 1.09123 1.66829 1.87922.4157.7888.62512 1.7854.63287 2.98603.00543 1.18355-.18071 2.1747-.55689 2.97979-.37846.80119-.89967 1.44181-1.56434 1.92424-.66777.48005-1.45577.82131-2.37094 1.02529-.91675.2063-1.90718.31181-2.97594.31802l-3.26366.01628.04111 7.8947-4.46428.02248-.1078-20.24976zm4.51237 8.557l2.9759-.01548c.40254-.0008.78645-.0419 1.16027-.12024.37073-.07598.70268-.20938.99973-.39167.29474-.18382.53051-.432.71045-.74766.17993-.3149.2668-.71045.26524-1.18743-.00386-.51342-.1241-.92914-.36296-1.24247-.242-.3141-.54756-.55533-.92139-.72593-.36998-.16677-.78802-.27612-1.2464-.3211-.45836-.04421-.89811-.0667-1.31768-.06281l-2.28956.01084.0264 4.80395zM186.368 9.015l13.768-.072.022 4.119-9.304.049.021 3.774 8.788-.046.021 4.119-8.788.047.021 4.119 9.819-.05.021 4.117-14.283.074zm17.48419-.01659l7.84273-.04265c1.02919-.00545 2.00953.08918 2.93327.2854.9268.1947 1.73808.52507 2.43999.98733.69723.46381 1.25412 1.09123 1.6675 1.87927.41572.7903.6259 1.77607.63288 2.95573.00699 1.43093-.3599 2.64785-1.09903 3.65534-.736 1.00594-1.82106 1.64344-3.25355 1.918l5.19874 8.52604-5.35309.02788-4.27658-8.07306-2.20654.01164.04265 8.0948-4.46582.02404-.10315-20.24976zm4.5085 8.35458l2.63388-.01316c.39941-.00156.826-.0186 1.27351-.04966.44829-.03176.85312-.11711 1.21456-.26367.3622-.14428.6608-.37075.8989-.67707.235-.30637.35212-.7345.35058-1.2875-.0039-.51575-.1117-.92603-.32267-1.22852-.21017-.30405-.47853-.5359-.8035-.69724-.32496-.16213-.70034-.2676-1.11916-.32341-.41959-.0551-.8291-.08147-1.2301-.07759l-2.92005.01473.02405 4.6031zM223.202 8.977l4.463-.023.086 16.132 8.273-.044.023 4.119-12.74.065zm15.94.024l13.768-.072.021 4.119-9.302.05.021 3.774 8.787-.044.022 4.117-8.79.046.023 4.119 9.819-.049.021 4.117-14.284.073zm17.48474-.0053l6.69794-.0349c1.62097-.00932 3.16519.16441 4.62637.51732 1.46045.35442 2.73938.93691 3.83063 1.74038 1.092.80507 1.96066 1.85134 2.60827 3.14655.6453 1.29526.97416 2.86504.9819 4.71481.00852 1.64036-.29318 3.08757-.90743 4.33782-.61274 1.25256-1.44257 2.30659-2.48651 3.1582-1.04627.85544-2.25388 1.50463-3.62513 1.9498-1.37353.44753-2.81302.674-4.31921.68096l-7.29901.03881-.10782-20.24975zm4.55115 16.10887l2.31897-.01316c1.0292-.00545 1.98938-.1148 2.87353-.32806.8873-.21718 1.65357-.56777 2.29886-1.0579.64606-.48787 1.15405-1.13006 1.52167-1.92425.36764-.79186.54913-1.76059.5437-2.90531-.00543-.99121-.197-1.85367-.57315-2.5866-.3746-.73293-.87952-1.33403-1.51163-1.80869-.63132-.47385-1.37588-.82751-2.2228-1.05942-.85004-.2358-1.7443-.34902-2.67966-.34514l-2.6331.01472.0636 12.0138zm36.77142 2.64808c-1.31308.69416-2.68506 1.19831-4.1137 1.51008-1.43018.31413-2.88828.4731-4.37663.48086-1.58453.007-3.04647-.23191-4.38436-.71973-1.3379-.49018-2.4951-1.19287-3.47309-2.1135-.98034-.91906-1.7443-2.0351-2.29574-3.3474-.55066-1.31539-.8291-2.78125-.83841-4.403-.00931-1.62095.25595-3.08914.79187-4.40845.53903-1.31694 1.2898-2.4415 2.26007-3.37302.96716-.9299 2.11734-1.64575 3.45367-2.14677 1.32935-.50491 2.78824-.76087 4.37274-.76787 1.62177-.00928 3.1171.17761 4.48288.56152 1.36505.38472 2.56797 1.05015 3.6026 1.9987l-3.12945 3.44905c-.61429-.62671-1.30457-1.10056-2.06928-1.4209-.76397-.31953-1.71948-.47698-2.86425-.47002-.95395.00388-1.81641.17141-2.5881.49951-.77094.33038-1.43098.78335-1.98396 1.36736-.54913.58633-.96872 1.2805-1.2619 2.084-.29083.80115-.43432 1.6698-.42886 2.60284.0062.95551.15664 1.82573.45678 2.61452.30094.7903.72751 1.47515 1.2836 2.0522.55689.58012 1.22388 1.02917 1.99714 1.35026.77404.31958 1.64038.47546 2.59356.47158.97415-.00544 1.81253-.11867 2.51834-.34126.70264-.22258 1.26496-.44904 1.68378-.68095l-.01785-3.29004-3.63516.0186-.02015-4.1191 7.92801-.0427.05585 10.58363zM301.044 8.536l13.768-.072.02 4.116-9.302.051.02 3.774 8.789-.045.021 4.117-8.788.047.022 4.121 9.817-.052.022 4.116-14.282.076zm17.4842-.0154l7.84271-.04109c1.0292-.00544 2.00723.08687 2.93482.2854.92602.1947 1.73806.52508 2.43844.98733.69959.46226 1.25412 1.08892 1.66983 1.87927.4134.78875.62357 1.77608.63056 2.95574.00698 1.43093-.3599 2.64785-1.09668 3.65534-.73835 1.00361-1.82343 1.64192-3.25437 1.918l5.1972 8.52447-5.35308.02793-4.2789-8.07155-2.20423.01165.04267 8.09479-4.4635.02173-.10547-20.249zm4.50848 8.35615l2.63388-.01472c.39942 0 .82444-.0186 1.2735-.0481.44675-.03176.8516-.11711 1.2138-.26523.36066-.14273.66001-.3692.89735-.67552.23733-.30637.35443-.7345.3529-1.2875-.00387-.51574-.1117-.92602-.3211-1.2285-.21174-.30406-.4801-.53592-.80738-.69725-.32422-.16213-.69958-.26916-1.11685-.32341-.42114-.05742-.8291-.08147-1.2324-.0799l-2.91775.01703.02405 4.6031z"/><path fill="#472ee0" d="M126.83475 43.94156h26.6377v5.3877h-20.89112v13.28857h19.45459v5.3877h-19.4546v18.31689h-5.74657V43.94156zm31.96435 0h5.74658v42.38086h-5.74658V43.94156zm14.24658 0h14.90528c2.71289 0 4.94726.36963 6.7041 1.10742 1.75586.73877 3.14258 1.67627 4.16016 2.81348s1.72558 2.41504 2.125 3.83105c.39843 1.417.59863 2.7837.59863 4.10059 0 1.35693-.23926 2.66357-.71777 3.9204-.4795 1.25733-1.16797 2.39454-2.06543 3.41212-.89844 1.01758-1.9961 1.87646-3.292 2.57422-1.29785.69873-2.74511 1.12793-4.33984 1.28662l12.03125 19.33496h-7.18262l-10.77539-18.67627h-6.40527v18.67627h-5.7461V43.94156zm5.7461 18.67627h7.54297c1.1162 0 2.22363-.08985 3.32226-.26904 1.09668-.1797 2.07422-.50928 2.93262-.9878.8584-.479 1.5459-1.16748 2.06543-2.06543.51855-.89795.77832-2.06494.77832-3.50146 0-1.43701-.25977-2.604-.77832-3.50196-.51953-.89794-1.20703-1.58642-2.06543-2.06542-.8584-.47852-1.83594-.80811-2.93262-.98731-1.09863-.17969-2.20605-.26953-3.32226-.26953h-7.54297v13.64795zm28.4336-18.67627h27.35546v5.3877h-21.60937v12.63037h20.11328v5.3872h-20.11328v13.58838h22.6875v5.3872h-28.4336V43.94157zm34.17968 0h26.6377v5.3877h-20.8916v13.28857h19.45507v5.3877h-19.45508v18.31689h-5.74609V43.94156zm31.96484 0h5.7461V80.9352h19.45508v5.3872H273.3699V43.94157zm32.02442 24.30322l-16.042-24.30322h7.36329l11.55273 18.6167 11.91211-18.6167h7.00293l-16.042 24.30322v18.07764h-5.74706V68.24478z"/><g id="Group-2-Copy-2" transform="translate(0 .665)"><path id="Path-3" fill="#ffea00" fill-rule="evenodd" d="M41.344 61.991v9.842l12.403 7.312 12.373-7.312V48.929l-12.373 7.144-12.403-7.144z" clip-rule="evenodd"/><path id="Combined-Shape" d="M63.94499 46.3944l4.21819 1.71921.00017 22.87608c0 1.45317-.74758 2.7999-1.97117 3.56986l-.1379.08315-10.22842 5.90538c-1.3051.7535-2.91304.7535-4.21814 0L41.3793 74.6427c-1.3051-.7535-2.10907-2.14602-2.10907-3.653l-.00043-22.85612 4.2182-1.58856.00036 24.44467 10.22843 5.90538L63.9452 70.9897 63.945 46.3944zM51.60772 22.63822c1.3051-.7535 2.91304-.7535 4.21814 0l10.22842 5.90538c1.3051.7535 2.10907 2.14602 2.10907 3.653v.00001l-.00017 4.52976-4.2182-.08711.00023-4.44265-10.22842-5.90538-10.22843 5.90538-.00036 4.0204-4.2182-.0865.00043-3.9339c0-1.45317.74757-2.7999 1.97117-3.56986l.1379-.08315 10.22842-5.90538z" class="st3"/><path id="Path-2" d="M65.06554 57.77423l2.10907 3.653-12.37302 7.14357c-.62925.36329-1.39929.37627-2.03859.03893l-.07048-.03893-12.37301-7.14356 2.10906-3.653 11.3183 6.5345 11.31867-6.5345z" class="st3"/><path id="Path-2-Copy" d="M65.06554 46.9477l2.10907 3.653-12.37302 7.14356c-.62925.3633-1.39929.37627-2.03859.03893l-.07048-.03893-12.37301-7.14356 2.10906-3.653 11.3183 6.5345 11.31867-6.5345z" class="st3"/><path id="Path-4" d="M53.71679 33.72953H4.78646c-2.02764 0-2.8872 2.58192-1.26416 3.79728L27.1812 55.24296c.61737.4623 1.43787.55073 2.13957.23059L54.5922 43.94399c.75148-.34285 1.23365-1.09281 1.23365-1.9188v-6.1866c0-1.1648-.94426-2.10906-2.10906-2.10906zm-2.10907 4.21813v2.72126L28.70805 51.11639 11.12181 37.94766h40.48591z" class="st3"/><path id="Path-4-Copy" d="M53.99392 33.72953h48.93031c2.02765 0 2.88721 2.58192 1.26417 3.79728L80.52951 55.24296c-.61738.4623-1.43787.55073-2.13957.23059L53.1185 43.94399c-.75148-.34285-1.23365-1.09281-1.23365-1.9188v-6.1866c0-1.1648.94426-2.10906 2.10907-2.10906zm2.10906 4.21813v2.72126l22.89967 10.44747 17.58623-13.16873h-40.4859z" class="st3"/><path id="Line-Copy-3" d="M46.68657 20.53164c1.14197 0 2.07195.9076 2.10798 2.04081l.00108.06826v4.55072c0 1.1648-.94426 2.10906-2.10906 2.10906-1.14197 0-2.07195-.9076-2.10798-2.0408l-.00108-.06826V22.6407c0-1.1648.94426-2.10907 2.10906-2.10907z" class="st3"/><path id="Line-Copy-4" d="M61.16882 20.53164c1.14197 0 2.07195.9076 2.10798 2.04081l.00109.06826v4.55072c0 1.1648-.94426 2.10906-2.10907 2.10906-1.14196 0-2.07195-.9076-2.10798-2.0408l-.00109-.06826V22.6407c0-1.1648.94427-2.10907 2.10907-2.10907z" class="st3"/></g></svg>
